Newaita-dark/.DP/16/cryptfolder-closed-light.svg

<svg xmlns="http://www.w3.org/2000/svg" xmlns:xlink="http://www.w3.org/1999/xlink" width="16px" height="16px" viewBox="0 0 16 16" version="1.1">
<g id="surface1">
<path style=" stroke:none;fill-rule:nonzero;fill:rgb(93.333334%,93.333334%,93.333334%);fill-opacity:1;" d="M 7.9375 2.109375 C 5.738281 2.109375 3.96875 3.585938 3.96875 5.417969 L 3.96875 8.0625 L 3.308594 8.0625 C 2.941406 8.0625 2.644531 8.359375 2.644531 8.726562 L 2.644531 13.355469 C 2.644531 13.722656 2.941406 14.015625 3.308594 14.015625 L 12.570312 14.015625 C 12.933594 14.015625 13.230469 13.722656 13.230469 13.355469 L 13.230469 8.726562 C 13.230469 8.359375 12.933594 8.0625 12.570312 8.0625 L 11.90625 8.0625 L 11.90625 5.417969 C 11.90625 3.585938 10.136719 2.109375 7.9375 2.109375 Z M 7.9375 3.433594 C 9.402344 3.433594 10.585938 4.316406 10.585938 5.417969 L 10.585938 8.0625 L 5.292969 8.0625 L 5.292969 5.417969 C 5.292969 4.316406 6.472656 3.433594 7.9375 3.433594 Z M 7.9375 3.433594 "/>
</g>
</svg>

<svg xmlns="http://www.w3.org/2000/svg" width="16pt" height="16pt" viewBox="0 0 16 16"><path d="M7.938 2.11c-2.2 0-3.97 1.476-3.97 3.308v2.644h-.66a.664.664 0 0 0-.663.665v4.628c0 .368.296.66.664.66h9.261a.66.66 0 0 0 .66-.66V8.727a.663.663 0 0 0-.66-.665h-.664V5.418c0-1.832-1.77-3.309-3.969-3.309zm0 1.324c1.464 0 2.648.882 2.648 1.984v2.644H5.293V5.418c0-1.102 1.18-1.984 2.644-1.984zm0 0" fill="#bdbdbd"/></svg>
